public/library/astro.svg

<?xml version="1.0" encoding="UTF-8"?>
<svg width="256px" height="264px" viewBox="0 0 256 264" version="1.1" xmlns="http://www.w3.org/2000/svg" xmlns:xlink="http://www.w3.org/1999/xlink" preserveAspectRatio="xMidYMid">
    <title>Astro</title>
    <defs>
        <linearGradient x1="137.072532%" y1="-40.9964367%" x2="85.9991171%" y2="56.2048592%" id="Astro-linearGradient-1">
            <stop stop-color="#FF1639" offset="0%"></stop>
            <stop stop-color="#FF1639" stop-opacity="0" offset="100%"></stop>
        </linearGradient>
    </defs>
    <g stroke="none" stroke-width="1" fill="none" fill-rule="evenodd">
        <g>
            <path d="M156.376743,4.833565 C157.952341,6.78963202 158.755785,9.42903125 160.362671,14.7078297 L195.467767,130.028388 C182.488816,123.295091 168.3783,118.438927 153.497899,115.818981 L130.640938,38.5784973 C130.266938,37.3146465 129.106193,36.4476538 127.788195,36.4476538 C126.466794,36.4476538 125.303778,37.3191857 124.932859,38.5874137 L102.352791,115.779912 C87.4031662,118.388185 73.228939,123.253103 60.1940581,130.010717 L95.4713205,14.6810807 C97.083233,9.41136068 97.8892702,6.77650068 99.4648689,4.82404883 C100.85598,3.10040652 102.665349,1.76177183 104.720485,0.9356971 C107.048461,0 109.803772,0 115.314558,0 L140.511329,0 C146.029247,0 148.788287,0 151.118371,0.937658695 C153.17529,1.77054227 154.985793,3.10677765 156.376743,4.833565 Z" fill="#000000"></path>
            <path d="M160.577474,135.516477 C154.790282,140.464884 143.239405,143.839801 129.934116,143.839801 C113.603917,143.839801 99.9165221,138.755865 96.2844909,131.91849 C94.9861094,135.837141 94.6949503,140.321899 94.6949503,143.1868 C94.6949503,143.1868 93.8394679,157.255328 103.623937,167.038987 C103.623937,161.958293 107.742638,157.840565 112.82317,157.840565 C121.531355,157.840565 121.521466,165.437288 121.513523,171.600911 C121.513361,171.785723 121.513036,171.968913 121.513036,172.150482 C121.513036,181.506156 127.231005,189.526 135.362871,192.907726 C134.148303,190.409529 133.466932,187.603313 133.466932,184.639845 C133.466932,175.717019 138.705364,172.393655 144.793442,168.532069 C149.637609,165.459984 155.019675,162.047457 158.728873,155.199706 C160.664206,151.626685 161.763186,147.535381 161.763186,143.1868 C161.763186,140.512546 161.347684,137.935399 160.577474,135.516477 Z" fill="#FF5D01"></path>
            <path d="M160.577474,135.516477 C154.790282,140.464884 143.239405,143.839801 129.934116,143.839801 C113.603917,143.839801 99.9165221,138.755865 96.2844909,131.91849 C94.9861094,135.837141 94.6949503,140.321899 94.6949503,143.1868 C94.6949503,143.1868 93.8394679,157.255328 103.623937,167.038987 C103.623937,161.958293 107.742638,157.840565 112.82317,157.840565 C121.531355,157.840565 121.521466,165.437288 121.513523,171.600911 C121.513361,171.785723 121.513036,171.968913 121.513036,172.150482 C121.513036,181.506156 127.231005,189.526 135.362871,192.907726 C134.148303,190.409529 133.466932,187.603313 133.466932,184.639845 C133.466932,175.717019 138.705364,172.393655 144.793442,168.532069 C149.637609,165.459984 155.019675,162.047457 158.728873,155.199706 C160.664206,151.626685 161.763186,147.535381 161.763186,143.1868 C161.763186,140.512546 161.347684,137.935399 160.577474,135.516477 Z" fill="url(#Astro-linearGradient-1)"></path>
            <path d="M28.0135222,221.639421 C43.8878526,221.639421 52.2140945,227.319941 52.2140945,238.058458 L52.2140945,238.058458 L52.2143519,248.521647 C52.2195489,253.47567 52.3049034,256.225804 52.6025429,258.83324 L52.6649404,259.353435 C52.7737842,260.219292 52.907194,261.084562 53.0700633,262.025585 L53.0700633,262.025585 L45.3663441,262.025585 C44.9772674,259.535494 44.8216367,256.811956 44.8216367,253.932789 C40.2305314,260.391462 32.3711815,263.504076 19.3760189,263.504076 C7.62590186,263.504076 0,259.224232 0,251.831774 C0,248.330084 1.47849123,245.295285 4.12421134,243.349902 C6.92556375,241.326703 10.582885,239.926027 20.4654338,239.381319 L20.4654338,239.381319 L44.7438214,237.980643 L44.7438214,237.20249 C44.7438214,230.977262 38.5185938,227.319941 28.0135222,227.319941 C17.35282,227.319941 10.8941463,230.354739 9.64910083,236.113075 L9.64910083,236.113075 L1.47849123,236.113075 C2.72353513,227.553387 12.6838993,221.639421 28.0135222,221.639421 Z M86.8735355,221.639421 C100.257775,221.639421 108.895278,225.218926 112.786045,231.288523 L112.786045,231.288523 L106.483002,234.323322 C102.747866,229.49877 97.0673457,227.319941 86.1731974,227.319941 C76.60191,227.319941 72.1664353,229.420955 72.1664353,233.467353 C72.1664353,236.657782 75.0456031,238.136274 80.1814158,238.52535 L80.1814158,238.52535 L99.0905446,240.003842 C109.206539,240.859811 113.175122,244.128055 113.175122,250.508913 C113.175122,258.212633 106.716448,263.504076 90.608672,263.504076 C76.3684639,263.504076 68.042222,259.457678 63.295486,252.298666 L63.295486,252.298666 L69.4428982,248.952607 C72.9445887,254.633127 80.1814158,257.745741 91.6202715,257.745741 C101.035928,257.745741 105.782664,255.566911 105.782664,250.975806 C105.782664,247.785376 103.915096,246.540331 97.7676838,246.073439 L97.7676838,246.073439 L79.0141856,244.594947 C69.7541596,243.816794 64.8517929,240.548549 64.8517929,233.778614 C64.8517929,226.230526 73.1002194,221.639421 86.8735355,221.639421 Z M228.064291,221.639421 C244.63896,221.639421 256,230.043478 256,242.571748 C256,255.100019 244.63896,263.504076 228.064291,263.504076 C211.489623,263.504076 200.128582,255.100019 200.128582,242.571748 C200.128582,230.043478 211.489623,221.639421 228.064291,221.639421 Z M136.567225,209.967119 L136.567225,223.117912 L156.021062,223.117912 L156.021062,228.954063 L136.567225,228.954063 L136.567225,247.007223 C136.567225,253.699343 140.224547,256.345064 146.994482,256.345064 C150.184911,256.345064 153.453155,255.878172 156.176692,255.25565 L156.176692,255.25565 L156.176692,261.558692 C154.231309,262.414661 149.795834,263.114999 146.138513,263.114999 C131.742674,263.114999 129.096952,255.41128 129.096952,247.707561 L129.096952,247.707561 L129.096952,228.954063 L116.879781,228.954063 L116.879781,223.117912 L129.096952,223.117912 L129.096952,213.001917 L136.567225,209.967119 Z M191.769917,221.950682 C193.870932,221.950682 195.271608,222.028497 196.90573,222.417574 L196.90573,222.417574 L196.90573,229.576586 C195.115977,229.265324 193.793116,229.109694 191.692102,229.109694 C185.54469,229.109694 182.042999,230.821631 179.319462,233.85643 C176.206848,237.124674 175.117434,241.87141 175.117434,247.474115 L175.117434,247.474115 L175.117434,262.025585 L167.724976,262.025585 L167.724976,223.117912 L174.572726,223.117912 L174.572726,234.401137 C176.829371,226.853049 183.443675,221.950682 191.769917,221.950682 Z M44.7438214,243.03864 L21.9439253,244.439317 C10.9719617,245.139655 7.85934789,247.162854 7.85934789,251.676144 C7.85934789,255.878172 12.83953,257.979187 21.86611,257.979187 C35.172534,257.979187 44.7438214,252.999005 44.7438214,244.828393 L44.7438214,244.828393 L44.7438214,243.03864 Z M228.064291,227.786833 C215.847282,227.786833 207.987932,233.545168 207.987932,242.571748 C207.987932,251.598328 215.847282,257.356664 228.064291,257.356664 C240.203485,257.356664 248.14065,251.598328 248.14065,242.571748 C248.14065,233.545168 240.203485,227.786833 228.064291,227.786833 Z" fill="#000000"></path>
        </g>
    </g>
</svg>

<svg width="256" height="264" xmlns="http://www.w3.org/2000/svg" preserveAspectRatio="xMidYMid"><defs><linearGradient x1="137.073%" y1="-40.996%" x2="85.999%" y2="56.205%" id="a"><stop stop-color="#FF1639" offset="0%"/><stop stop-color="#FF1639" stop-opacity="0" offset="100%"/></linearGradient></defs><g fill="none" fill-rule="evenodd"><path d="M156.377 4.834c1.575 1.956 2.379 4.595 3.986 9.874l35.105 115.32a146.081 146.081 0 0 0-41.97-14.209l-22.857-77.24a2.975 2.975 0 0 0-5.708.008l-22.58 77.193a146.086 146.086 0 0 0-42.159 14.23L95.471 14.682c1.612-5.27 2.418-7.904 3.994-9.857A12.97 12.97 0 0 1 104.72.936C107.048 0 109.804 0 115.315 0h25.196c5.518 0 8.277 0 10.607.938a13.016 13.016 0 0 1 5.259 3.896Z" fill="#000"/><path d="M160.577 135.516c-5.787 4.949-17.338 8.324-30.643 8.324-16.33 0-30.017-5.084-33.65-11.922-1.298 3.92-1.589 8.404-1.589 11.269 0 0-.856 14.068 8.929 23.852a9.199 9.199 0 0 1 9.2-9.198c8.707 0 8.697 7.596 8.69 13.76l-.001.55c0 9.355 5.718 17.375 13.85 20.757a18.86 18.86 0 0 1-1.896-8.268c0-8.923 5.238-12.246 11.326-16.108 4.845-3.072 10.227-6.485 13.936-13.332a25.145 25.145 0 0 0 3.034-12.013 25.24 25.24 0 0 0-1.186-7.67Z" fill="#FF5D01"/><path d="M160.577 135.516c-5.787 4.949-17.338 8.324-30.643 8.324-16.33 0-30.017-5.084-33.65-11.922-1.298 3.92-1.589 8.404-1.589 11.269 0 0-.856 14.068 8.929 23.852a9.199 9.199 0 0 1 9.2-9.198c8.707 0 8.697 7.596 8.69 13.76l-.001.55c0 9.355 5.718 17.375 13.85 20.757a18.86 18.86 0 0 1-1.896-8.268c0-8.923 5.238-12.246 11.326-16.108 4.845-3.072 10.227-6.485 13.936-13.332a25.145 25.145 0 0 0 3.034-12.013 25.24 25.24 0 0 0-1.186-7.67Z" fill="url(#a)"/><path d="M28.014 221.64c15.874 0 24.2 5.68 24.2 16.418v10.464c.006 4.954.09 7.704.389 10.311l.062.52c.109.866.242 1.732.405 2.673h-7.704c-.389-2.49-.544-5.214-.544-8.093-4.591 6.458-12.45 9.571-25.446 9.571-11.75 0-19.376-4.28-19.376-11.672 0-3.502 1.478-6.537 4.124-8.482 2.802-2.023 6.459-3.424 16.341-3.969l24.279-1.4v-.779c0-6.225-6.225-9.882-16.73-9.882-10.661 0-17.12 3.035-18.365 8.793H1.48c1.245-8.56 11.205-14.474 26.535-14.474Zm58.86 0c13.384 0 22.021 3.579 25.912 9.649l-6.303 3.034c-3.735-4.824-9.416-7.003-20.31-7.003-9.571 0-14.007 2.101-14.007 6.147 0 3.19 2.88 4.67 8.015 5.058l18.91 1.479c10.116.856 14.084 4.124 14.084 10.505 0 7.704-6.459 12.995-22.566 12.995-14.24 0-22.567-4.046-27.314-11.205l6.148-3.346c3.502 5.68 10.738 8.793 22.177 8.793 9.416 0 14.163-2.18 14.163-6.77 0-3.19-1.868-4.436-8.015-4.903l-18.754-1.478c-9.26-.778-14.162-4.046-14.162-10.816 0-7.548 8.248-12.14 22.022-12.14Zm141.19 0c16.575 0 27.936 8.403 27.936 20.932 0 12.528-11.361 20.932-27.936 20.932-16.574 0-27.935-8.404-27.935-20.932 0-12.529 11.36-20.933 27.935-20.933Zm-91.497-11.673v13.15h19.454v5.837h-19.454v18.053c0 6.692 3.658 9.338 10.427 9.338 3.19 0 6.46-.467 9.183-1.09v6.304c-1.946.856-6.381 1.556-10.038 1.556-14.396 0-17.042-7.704-17.042-15.407v-18.754H116.88v-5.836h12.217v-10.116l7.47-3.035Zm55.203 11.984c2.1 0 3.502.077 5.136.467v7.159c-1.79-.312-3.113-.467-5.214-.467-6.147 0-9.649 1.712-12.373 4.746-3.112 3.269-4.202 8.015-4.202 13.618v14.552h-7.392v-38.908h6.848V234.4c2.256-7.548 8.87-12.45 17.197-12.45ZM44.744 243.039l-22.8 1.4c-10.972.7-14.085 2.724-14.085 7.237 0 4.202 4.98 6.303 14.007 6.303 13.307 0 22.878-4.98 22.878-13.15v-1.79Zm183.32-15.252c-12.217 0-20.076 5.758-20.076 14.785 0 9.026 7.86 14.785 20.076 14.785 12.14 0 20.077-5.759 20.077-14.785 0-9.027-7.938-14.785-20.077-14.785Z" fill="#000"/></g></svg>
